X:1
T:Holy Sepulchre, 888
T:Edward Henry Thorne, 1862
T:Holy Sepulchre, 888
T:Public Domain
C:Edward Henry Thorne, 1862
Z:Public Domain
%%score ( 1 2 ) ( 3 4 )
L:1/8
M:4/4
K:D
V:1 treble 
V:2 treble 
V:3 bass 
V:4 bass 
V:1
 D2 | D3 D D2 [DF]2 | [DA]2 [CE]2 [DF]2 [DA]2 | [DA]3 [DA] [DB]2 [DF]2 | [DA]2 [DG]2 [CF]2 F2 | %5
 [^DF]3 [DF] [DF]2 [DF]2 | E2 D2 F2 E2 | D6 |] %8
V:2
 D2 | D3 D D2 x2 | x8 | x8 | x6 F2 | x8 | G4 C4 | D6 |] %8
V:3
 D,2 | D,3 D, [B,,G,]2 [A,,F,]2 | [A,,E,]2 [A,,A,]2 [D,A,]2 [D,F,]2 | [D,F,]3 [D,F,] G,2 [F,A,]2 | %4
 [E,B,]2 [E,B,]2 [F,^A,]2 F,2 | [B,,B,]3 [B,,B,] [B,,B,]2 [B,,B,]2 | [E,B,]4 A,2 G,2 | [D,F,]6 |] %8
V:4
 D,2 | D,3 D, x4 | x8 | x4 G,2 x2 | x6 F,2 | x8 | x4 A,,4 | x6 |] %8

